X: 107
T: No_35_They_Are_Playing_a_Game.krn
%%abc-version 2.0
%%abcx-abcm2ps-target-version 5.9.1 (29 Sep 2008)
%%abc-creator hum2abc beta
%%abcx-conversion-date 2020/08/10 18:54:56
%%gracespace 0 6 6
%%humdrum-veritas 2448572182
%%humdrum-veritas-data 3435975387
%%linebreak <none>
%%barnumbers 0
L: 1/8
M: 2/4
%%staves {1 2}
V: 1 clef=bass
V: 2 clef=bass
K: F
[V:1] F/F/ [I:setbarnb 1]| 
[V:2] z | 
[V:1] F2DD | 
[V:2] !accent!G,,2!accent!G,,2 | 
[V:1] D2DD | 
[V:2] !accent!G,,2!accent!G,,2 | 
[V:1] D3D | 
[V:2] !accent!G,,2!accent!G,,2 | 
[V:1] DB,B,2 | 
[V:2] z4 | 
[V:1] A,A,A,2 | 
[V:2] z4 | 
[V:1] A,A, A,A, | 
[V:2] z4 | 
[V:1] A,4- | 
[V:2] z4 | 
[V:1] A,3A,/A,/ | 
[V:2] z4 | 
[V:1] A,2A,A, | 
[V:2] z4 | 
[V:1] A,2A,A, | 
[V:2] z4 | 
[V:1] A,3A, | 
[V:2] z4 | 
[V:1] A,F,F,2 | 
[V:2] z4 | 
[V:1] D,D,D,2 | 
[V:2] z4 | 
[V:1] D,D, D,D, | 
[V:2] z4 | 
[V:1] D,4- | 
[V:2] z4 | 
[V:1] D,3F,/F,/ | 
[V:2] z4 | 
[V:1] F,2D,D, | 
[V:2] z4 | 
[V:1] D,2D,D, | 
[V:2] z4 | 
[V:1] D,3D, | 
[V:2] z4 | 
[V:1] D,A,,A,,2 | 
[V:2] z4 | 
[V:1] A,,A,,A,,2 | 
[V:2] z4 | 
[V:1] A,,A,, A,,A,, | 
[V:2] z4 | 
[V:1] A,,4- | 
[V:2] z4 | 
[V:1] A,,3z |]  
[V:2] z4 |]  


